Dominus_Dark_Funeral/22/mimes/authors.svg

<svg xmlns="http://www.w3.org/2000/svg" viewBox="0 0 24 24"><defs><linearGradient id="a"><stop offset="0"/><stop stop-opacity="0" offset="1"/></linearGradient></defs><path d="M19.822 2.174a.352.352 0 0 0-.319.2c0 .01-1.001 1.982-2.576 2.258a.76.76 0 0 0-.273.103 3.702 3.702 0 0 0-1.819-.531 3.732 3.732 0 0 0-1.703.469c-.047-.019-.091-.042-.146-.052-1.575-.264-2.576-2.236-2.576-2.258a.347.347 0 0 0-.364-.187.352.352 0 0 0-.296.275 5.285 5.285 0 0 0-.056 1.62 3.105 3.105 0 0 0 1.563 2.455l.305.153a2.884 2.884 0 0 0-.084.673c.011.66.066 1.419.463 3.17.104.306.589.84 1.084 1.354.085.586.124 1.152.006 1.806-1.04.846-3.31 1.33-4.311 2.022-.33-.155-.635-.319-.854-.504a5.923 5.923 0 0 1-.004-1.251c.358-.412.733-.858.819-1.105.33-1.343.33-1.838.342-2.344 0-.174-.025-.344-.065-.508l.22-.11a2.312 2.312 0 0 0 1.154-1.827 3.93 3.93 0 0 0-.032-1.2.253.253 0 0 0-.221-.198.264.264 0 0 0-.276.144c0 .011-.736 1.475-1.903 1.673a.55.55 0 0 0-.107.028 2.75 2.75 0 0 0-2.716 0 .55.55 0 0 0-.105-.028c-1.167-.198-1.916-1.662-1.916-1.673a.26.26 0 0 0-.265-.144.246.246 0 0 0-.219.187 3.837 3.837 0 0 0-.045 1.211 2.312 2.312 0 0 0 1.157 1.828l.23.103a2.16 2.16 0 0 0-.067.514c.011.473.055 1.045.353 2.344.074.227.432.622.797 1.004.067.436.095.858.007 1.352-1.002.804-3.567 1.168-3.567 2.015l-.342 2.51c0 .32.357.618.957.864-.035.012-.063.039-.101.039.475.152.955.315 1.384.398-.03-.025-.048-.06-.075-.086.89.188 1.981.305 3.176.305.964 0 1.854-.078 2.634-.204.584.195 1.174.403 1.708.496-.043-.034-.068-.08-.106-.118 1.202.254 2.68.409 4.296.409s3.09-.156 4.293-.411c-.041.038-.068.087-.114.12.579-.1 1.224-.337 1.862-.546a.453.453 0 0 1-.166-.03c.828-.332 1.325-.733 1.325-1.17l-.463-3.39c0-.403-.612-.744-1.41-1.087a3.633 3.633 0 0 0 1.477-2.182l.727.12h.054c.198 0 .352-.155.352-.33v-.1l-.593-2.707a.352.352 0 0 0-.65-.11l-1.498 2.376a.33.33 0 0 0-.022.332.424.424 0 0 0 .265.187l.66.11a2.274 2.274 0 0 1-.22.66 3.056 3.056 0 0 1-1.35 1.311c-.965-.382-2.009-.784-2.613-1.299-.084-.7-.03-1.384.073-2.075.355-.422.678-.833.764-1.086.44-1.816.44-2.487.462-3.17 0-.242-.036-.476-.092-.702.068.017.126.04.202.053l.363-.176A3.105 3.105 0 0 0 20.22 4.07a5.285 5.285 0 0 0-.055-1.619.352.352 0 0 0-.308-.275.352.352 0 0 0-.034-.002zm-4.987 2.03c.045-.002.088-.013.133-.013h-.264c.045 0 .087.011.131.013z" fill="#e6e6e6"/></svg>

<?xml version="1.0" encoding="UTF-8" standalone="no"?>
<svg
   xmlns:dc="http://purl.org/dc/elements/1.1/"
   xmlns:cc="http://creativecommons.org/ns#"
   xmlns:rdf="http://www.w3.org/1999/02/22-rdf-syntax-ns#"
   xmlns:svg="http://www.w3.org/2000/svg"
   xmlns="http://www.w3.org/2000/svg"
   xmlns:sodipodi="http://sodipodi.sourceforge.net/DTD/sodipodi-0.dtd"
   xmlns:inkscape="http://www.inkscape.org/namespaces/inkscape"
   viewBox="0 0 24 24"
   version="1.1"
   id="svg11"
   sodipodi:docname="authors.svg"
   inkscape:version="0.92.4 (5da689c313, 2019-01-14)">
  <metadata
     id="metadata15">
    <rdf:RDF>
      <cc:Work
         rdf:about="">
        <dc:format>image/svg+xml</dc:format>
        <dc:type
           rdf:resource="http://purl.org/dc/dcmitype/StillImage" />
        <dc:title></dc:title>
      </cc:Work>
    </rdf:RDF>
  </metadata>
  <sodipodi:namedview
     pagecolor="#ffffff"
     bordercolor="#666666"
     borderopacity="1"
     objecttolerance="10"
     gridtolerance="10"
     guidetolerance="10"
     inkscape:pageopacity="0"
     inkscape:pageshadow="2"
     inkscape:window-width="1112"
     inkscape:window-height="480"
     id="namedview13"
     showgrid="false"
     inkscape:zoom="9.8333333"
     inkscape:cx="1.0677966"
     inkscape:cy="12"
     inkscape:window-x="0"
     inkscape:window-y="25"
     inkscape:window-maximized="0"
     inkscape:current-layer="svg11" />
  <defs
     id="defs7">
    <linearGradient
       id="a">
      <stop
         offset="0"
         id="stop2" />
      <stop
         stop-opacity="0"
         offset="1"
         id="stop4" />
    </linearGradient>
  </defs>
  <path
     d="m 19.822,2.174 a 0.352,0.352 0 0 0 -0.319,0.2 c 0,0.01 -1.001,1.982 -2.576,2.258 A 0.76,0.76 0 0 0 16.654,4.735 3.702,3.702 0 0 0 14.835,4.204 3.732,3.732 0 0 0 13.132,4.673 C 13.085,4.654 13.041,4.631 12.986,4.621 11.411,4.357 10.41,2.385 10.41,2.363 A 0.347,0.347 0 0 0 10.046,2.176 0.352,0.352 0 0 0 9.75,2.451 5.285,5.285 0 0 0 9.694,4.071 3.105,3.105 0 0 0 11.257,6.526 l 0.305,0.153 a 2.884,2.884 0 0 0 -0.084,0.673 c 0.011,0.66 0.066,1.419 0.463,3.17 0.104,0.306 0.589,0.84 1.084,1.354 0.085,0.586 0.124,1.152 0.006,1.806 -1.04,0.846 -3.31,1.33 -4.311,2.022 C 8.39,15.549 8.085,15.385 7.866,15.2 A 5.923,5.923 0 0 1 7.862,13.949 c 0.358,-0.412 0.733,-0.858 0.819,-1.105 0.33,-1.343 0.33,-1.838 0.342,-2.344 0,-0.174 -0.025,-0.344 -0.065,-0.508 l 0.22,-0.11 A 2.312,2.312 0 0 0 10.332,8.055 3.93,3.93 0 0 0 10.3,6.855 0.253,0.253 0 0 0 10.079,6.657 0.264,0.264 0 0 0 9.803,6.801 C 9.803,6.812 9.067,8.276 7.9,8.474 A 0.55,0.55 0 0 0 7.793,8.502 2.75,2.75 0 0 0 5.077,8.502 0.55,0.55 0 0 0 4.972,8.474 C 3.805,8.276 3.056,6.812 3.056,6.801 A 0.26,0.26 0 0 0 2.791,6.657 0.246,0.246 0 0 0 2.572,6.844 3.837,3.837 0 0 0 2.527,8.055 2.312,2.312 0 0 0 3.684,9.883 l 0.23,0.103 A 2.16,2.16 0 0 0 3.847,10.5 c 0.011,0.473 0.055,1.045 0.353,2.344 0.074,0.227 0.432,0.622 0.797,1.004 0.067,0.436 0.095,0.858 0.007,1.352 -1.002,0.804 -3.567,1.168 -3.567,2.015 l -0.342,2.51 c 0,0.32 0.357,0.618 0.957,0.864 -0.035,0.012 -0.063,0.039 -0.101,0.039 0.475,0.152 0.955,0.315 1.384,0.398 -0.03,-0.025 -0.048,-0.06 -0.075,-0.086 0.89,0.188 1.981,0.305 3.176,0.305 0.964,0 1.854,-0.078 2.634,-0.204 0.584,0.195 1.174,0.403 1.708,0.496 -0.043,-0.034 -0.068,-0.08 -0.106,-0.118 1.202,0.254 2.68,0.409 4.296,0.409 1.616,0 3.09,-0.156 4.293,-0.411 -0.041,0.038 -0.068,0.087 -0.114,0.12 0.579,-0.1 1.224,-0.337 1.862,-0.546 a 0.453,0.453 0 0 1 -0.166,-0.03 c 0.828,-0.332 1.325,-0.733 1.325,-1.17 l -0.463,-3.39 c 0,-0.403 -0.612,-0.744 -1.41,-1.087 a 3.633,3.633 0 0 0 1.477,-2.182 l 0.727,0.12 h 0.054 c 0.198,0 0.352,-0.155 0.352,-0.33 v -0.1 l -0.593,-2.707 a 0.352,0.352 0 0 0 -0.65,-0.11 l -1.498,2.376 a 0.33,0.33 0 0 0 -0.022,0.332 0.424,0.424 0 0 0 0.265,0.187 l 0.66,0.11 a 2.274,2.274 0 0 1 -0.22,0.66 3.056,3.056 0 0 1 -1.35,1.311 c -0.965,-0.382 -2.009,-0.784 -2.613,-1.299 -0.084,-0.7 -0.03,-1.384 0.073,-2.075 0.355,-0.422 0.678,-0.833 0.764,-1.086 0.44,-1.816 0.44,-2.487 0.462,-3.17 0,-0.242 -0.036,-0.476 -0.092,-0.702 0.068,0.017 0.126,0.04 0.202,0.053 L 18.656,6.526 A 3.105,3.105 0 0 0 20.22,4.07 5.285,5.285 0 0 0 20.165,2.451 0.352,0.352 0 0 0 19.857,2.176 0.352,0.352 0 0 0 19.823,2.174 Z m -4.987,2.03 C 14.88,4.202 14.923,4.191 14.968,4.191 h -0.264 c 0.045,0 0.087,0.011 0.131,0.013 z"
     id="path9"
     inkscape:connector-curvature="0"
     style="fill:#e6e6e6" />
</svg>
